!!!OTL: Paschale
**kern
*staff1
=--
*clefC4
*k[]
0G
0A
1c
1A
=-
1A
0.c
0B
=-
0G
1A
0G
=-
0E
1F
0G
=-
0E
=-
!!linebreak:original
0c
0d
1c
=-
0B
=-
0A
=-
0c
=-
0A
=-
0c
=-
0G
=-
0F
=-
0A
=-
0B
=-
0c
=-
0B
=-
0A
=-
0G
=-
1A
1F#
=-
0G
=-
!!linebreak:original
0G
=-
0B
=-
0c
=-
0d
=-
1c
0d
0e
1d
1B
0d
=-
0c
=-
0B
=-
0A
=-
0G
=-
0A
=-
0B
=-
0A
=-
1F#
0G
=-=
*-
!!title: @{OTL}, @{GTL}, ed. @{ENC}
!!!pag:
!!!GTL: Hymnbook C
!!!EFL: 
!!!YEM: Creative Commons CC/BY/NC/SA 4.0
!!!ENC: Marcin Konik
!!!END: 2015-0m-dd
!!!EED: Marcin Konik
!!!EEV: 
!!!ONB: Encoded in vim by Marcin Konik
!!!CharacterEncoding: utf-8
!!!RDF**kern: l=long note in original notation
!!!RDF**kern: i=editorial accidental
!!muse2ps: z14jc180F
!!!COM: Anonim
!!!CDT: [?]
!!!TXO: Polish
!!!ODT: 
!!!GTL: Hymnbook C
!!!ARL: Opactwo św. Wojciecha, Staniątki 
!!!voices:	1
